src/assets/icons/copy.svg

<svg width="24" height="24" viewBox="0 0 24 24" fill="none" xmlns="http://www.w3.org/2000/svg">
<path d="M2.50001 10.5599L11.5 15.7599C11.652 15.8477 11.8245 15.8939 12 15.8939C12.1755 15.8939 12.348 15.8477 12.5 15.7599L21.5 10.5599C21.6516 10.472 21.7773 10.3459 21.8648 10.1941C21.9522 10.0423 21.9982 9.87014 21.9982 9.69495C21.9982 9.51976 21.9522 9.34764 21.8648 9.19583C21.7773 9.04402 21.6516 8.91785 21.5 8.82995L12.5 3.62995C12.348 3.54218 12.1755 3.49597 12 3.49597C11.8245 3.49597 11.652 3.54218 11.5 3.62995L2.50001 8.82995C2.34847 8.91785 2.22269 9.04402 2.13525 9.19583C2.04781 9.34764 2.00178 9.51976 2.00178 9.69495C2.00178 9.87014 2.04781 10.0423 2.13525 10.1941C2.22269 10.3459 2.34847 10.472 2.50001 10.5599ZM12 5.64995L19 9.64995L12 13.6999L5.00001 9.68995L12 5.64995ZM20.5 13.4399L12 18.3499L3.50001 13.4399C3.38647 13.3734 3.26092 13.3299 3.13055 13.312C3.00018 13.2941 2.86756 13.3021 2.74028 13.3356C2.61301 13.369 2.49358 13.4272 2.38886 13.5069C2.28414 13.5866 2.19617 13.6862 2.13001 13.7999C2.06389 13.9141 2.02101 14.0402 2.00382 14.1709C1.98664 14.3017 1.9955 14.4346 2.02989 14.562C2.06428 14.6893 2.12352 14.8086 2.20421 14.9129C2.28489 15.0173 2.38542 15.1046 2.50001 15.1699L11.5 20.3699C11.652 20.4577 11.8245 20.5039 12 20.5039C12.1755 20.5039 12.348 20.4577 12.5 20.3699L21.5 15.1699C21.6146 15.1046 21.7151 15.0173 21.7958 14.9129C21.8765 14.8086 21.9357 14.6893 21.9701 14.562C22.0045 14.4346 22.0134 14.3017 21.9962 14.1709C21.979 14.0402 21.9361 13.9141 21.87 13.7999C21.8038 13.6862 21.7159 13.5866 21.6112 13.5069C21.5064 13.4272 21.387 13.369 21.2597 13.3356C21.1325 13.3021 20.9998 13.2941 20.8695 13.312C20.7391 13.3299 20.6135 13.3734 20.5 13.4399Z" fill="currentColor"/>
</svg>

<svg width="24" height="24" fill="none" xmlns="http://www.w3.org/2000/svg"><path d="M2.5 10.56l9 5.2a1 1 0 0 0 1 0l9-5.2a1 1 0 0 0 0-1.73l-9-5.2a1 1 0 0 0-1 0l-9 5.2a1 1 0 0 0 0 1.73zM12 5.65l7 4-7 4.05-7-4.01 7-4.04zm8.5 7.79L12 18.35l-8.5-4.91a1 1 0 1 0-1 1.73l9 5.2a1 1 0 0 0 1 0l9-5.2a.999.999 0 1 0-1-1.73z" fill="currentColor"/></svg>
